X:5138
T:The Streets of Paradise
M:4/4
L:1/8
C:Aidan Crossey
R:Reel
K:ADor
||EAAB cAAc|BAGB edcB|EAAB cAAc|BAGB AGED|
EAAB cAAc|BAGB edcB|EAAB cAAc|BAGB ABcd||
||eaab aged|c2ec B2dB|eaab aged|ceBd ABcd|
eaab aged|c2ec B2dB|c2ec BAGB|ABcB A4||
